TO tree :size
   ifelse :size < 5 [forward :size back :size ]
   [
   make "b :size/3
   setpencolor [255 0 0]
   forward :b
   make "a :size*0.666666666666
   left 30 tree :a right 30
   make "a :size/6
   setpencolor [0 255 0]
   forward :a
   make "c :size/2
   right 25 tree :c left 25
   setpencolor [0 0 255]
   forward :b
   right 25 tree :c left 25
   forward :a
   back :size
   ]
END
tree 150